images/icons/mat.svg

<svg height="32pt" viewBox="0 0 32 32" width="32pt" xmlns="http://www.w3.org/2000/svg"><path d="m31 8.5c.277344 0 .5-.222656.5-.5s-.222656-.5-.5-.5h-.5v-1h.5c.277344 0 .5-.222656.5-.5s-.222656-.5-.5-.5h-30c-.277344 0-.5.222656-.5.5s.222656.5.5.5h.5v1h-.5c-.277344 0-.5.222656-.5.5s.222656.5.5.5h.5v1h-.5c-.277344 0-.5.222656-.5.5s.222656.5.5.5h.5v1h-.5c-.277344 0-.5.222656-.5.5s.222656.5.5.5h.5v1h-.5c-.277344 0-.5.222656-.5.5s.222656.5.5.5h.5v1h-.5c-.277344 0-.5.222656-.5.5s.222656.5.5.5h.5v1h-.5c-.277344 0-.5.222656-.5.5s.222656.5.5.5h.5v1h-.5c-.277344 0-.5.222656-.5.5s.222656.5.5.5h.5v1h-.5c-.277344 0-.5.222656-.5.5s.222656.5.5.5h.5v1h-.5c-.277344 0-.5.222656-.5.5s.222656.5.5.5h.5v1h-.5c-.277344 0-.5.222656-.5.5s.222656.5.5.5h30c.277344 0 .5-.222656.5-.5s-.222656-.5-.5-.5h-.5v-1h.5c.277344 0 .5-.222656.5-.5s-.222656-.5-.5-.5h-.5v-1h.5c.277344 0 .5-.222656.5-.5s-.222656-.5-.5-.5h-.5v-1h.5c.277344 0 .5-.222656.5-.5s-.222656-.5-.5-.5h-.5v-1h.5c.277344 0 .5-.222656.5-.5s-.222656-.5-.5-.5h-.5v-1h.5c.277344 0 .5-.222656.5-.5s-.222656-.5-.5-.5h-.5v-1h.5c.277344 0 .5-.222656.5-.5s-.222656-.5-.5-.5h-.5v-1h.5c.277344 0 .5-.222656.5-.5s-.222656-.5-.5-.5h-.5v-1h.5c.277344 0 .5-.222656.5-.5s-.222656-.5-.5-.5h-.5v-1zm-11.5-2h1v4.808594l-1-1zm-6 0h5v2.808594l-2.144531-2.148438c-.195313-.195312-.515625-.195312-.710938 0l-2.144531 2.148438zm-2 0h1v3.808594l-1 1zm-8.5 19h-.5v-19h.5zm7.5 0h-6.5v-19h6.5v5.808594l-3.339844 3.335937c-.09375.09375-.144531.222657-.144531.355469s.050781.261719.144531.355469l3.339844 3.335937zm2 0h-1v-4.808594l1 1zm6 0h-5v-2.808594l2.144531 2.148438c.195313.195312.515625.195312.710938 0l2.144531-2.148438zm2 0h-1v-3.808594l1-1zm-4.5-1.722656-7.777344-7.777344 7.777344-7.777344 7.777344 7.777344zm12 1.722656h-6.5v-5.808594l3.339844-3.335937c.09375-.09375.144531-.222657.144531-.355469s-.050781-.261719-.144531-.355469l-3.339844-3.335937v-5.808594h6.5zm1.5 0h-.5v-19h.5zm0 0" fill="#fff"/></svg>

<?xml version="1.0" encoding="UTF-8"?>
<svg xmlns="http://www.w3.org/2000/svg" xmlns:xlink="http://www.w3.org/1999/xlink" width="32pt" height="32pt" viewBox="0 0 32 32" version="1.1">
<g id="surface1">
<path style=" stroke:none;fill-rule:nonzero;fill:rgb(255,255,255);fill-opacity:1;" d="M 31 8.5 C 31.277344 8.5 31.5 8.277344 31.5 8 C 31.5 7.722656 31.277344 7.5 31 7.5 L 30.5 7.5 L 30.5 6.5 L 31 6.5 C 31.277344 6.5 31.5 6.277344 31.5 6 C 31.5 5.722656 31.277344 5.5 31 5.5 L 1 5.5 C 0.722656 5.5 0.5 5.722656 0.5 6 C 0.5 6.277344 0.722656 6.5 1 6.5 L 1.5 6.5 L 1.5 7.5 L 1 7.5 C 0.722656 7.5 0.5 7.722656 0.5 8 C 0.5 8.277344 0.722656 8.5 1 8.5 L 1.5 8.5 L 1.5 9.5 L 1 9.5 C 0.722656 9.5 0.5 9.722656 0.5 10 C 0.5 10.277344 0.722656 10.5 1 10.5 L 1.5 10.5 L 1.5 11.5 L 1 11.5 C 0.722656 11.5 0.5 11.722656 0.5 12 C 0.5 12.277344 0.722656 12.5 1 12.5 L 1.5 12.5 L 1.5 13.5 L 1 13.5 C 0.722656 13.5 0.5 13.722656 0.5 14 C 0.5 14.277344 0.722656 14.5 1 14.5 L 1.5 14.5 L 1.5 15.5 L 1 15.5 C 0.722656 15.5 0.5 15.722656 0.5 16 C 0.5 16.277344 0.722656 16.5 1 16.5 L 1.5 16.5 L 1.5 17.5 L 1 17.5 C 0.722656 17.5 0.5 17.722656 0.5 18 C 0.5 18.277344 0.722656 18.5 1 18.5 L 1.5 18.5 L 1.5 19.5 L 1 19.5 C 0.722656 19.5 0.5 19.722656 0.5 20 C 0.5 20.277344 0.722656 20.5 1 20.5 L 1.5 20.5 L 1.5 21.5 L 1 21.5 C 0.722656 21.5 0.5 21.722656 0.5 22 C 0.5 22.277344 0.722656 22.5 1 22.5 L 1.5 22.5 L 1.5 23.5 L 1 23.5 C 0.722656 23.5 0.5 23.722656 0.5 24 C 0.5 24.277344 0.722656 24.5 1 24.5 L 1.5 24.5 L 1.5 25.5 L 1 25.5 C 0.722656 25.5 0.5 25.722656 0.5 26 C 0.5 26.277344 0.722656 26.5 1 26.5 L 31 26.5 C 31.277344 26.5 31.5 26.277344 31.5 26 C 31.5 25.722656 31.277344 25.5 31 25.5 L 30.5 25.5 L 30.5 24.5 L 31 24.5 C 31.277344 24.5 31.5 24.277344 31.5 24 C 31.5 23.722656 31.277344 23.5 31 23.5 L 30.5 23.5 L 30.5 22.5 L 31 22.5 C 31.277344 22.5 31.5 22.277344 31.5 22 C 31.5 21.722656 31.277344 21.5 31 21.5 L 30.5 21.5 L 30.5 20.5 L 31 20.5 C 31.277344 20.5 31.5 20.277344 31.5 20 C 31.5 19.722656 31.277344 19.5 31 19.5 L 30.5 19.5 L 30.5 18.5 L 31 18.5 C 31.277344 18.5 31.5 18.277344 31.5 18 C 31.5 17.722656 31.277344 17.5 31 17.5 L 30.5 17.5 L 30.5 16.5 L 31 16.5 C 31.277344 16.5 31.5 16.277344 31.5 16 C 31.5 15.722656 31.277344 15.5 31 15.5 L 30.5 15.5 L 30.5 14.5 L 31 14.5 C 31.277344 14.5 31.5 14.277344 31.5 14 C 31.5 13.722656 31.277344 13.5 31 13.5 L 30.5 13.5 L 30.5 12.5 L 31 12.5 C 31.277344 12.5 31.5 12.277344 31.5 12 C 31.5 11.722656 31.277344 11.5 31 11.5 L 30.5 11.5 L 30.5 10.5 L 31 10.5 C 31.277344 10.5 31.5 10.277344 31.5 10 C 31.5 9.722656 31.277344 9.5 31 9.5 L 30.5 9.5 L 30.5 8.5 Z M 19.5 6.5 L 20.5 6.5 L 20.5 11.308594 L 19.5 10.308594 Z M 13.5 6.5 L 18.5 6.5 L 18.5 9.308594 L 16.355469 7.160156 C 16.160156 6.964844 15.839844 6.964844 15.644531 7.160156 L 13.5 9.308594 Z M 11.5 6.5 L 12.5 6.5 L 12.5 10.308594 L 11.5 11.308594 Z M 3 25.5 L 2.5 25.5 L 2.5 6.5 L 3 6.5 Z M 10.5 25.5 L 4 25.5 L 4 6.5 L 10.5 6.5 L 10.5 12.308594 L 7.160156 15.644531 C 7.066406 15.738281 7.015625 15.867188 7.015625 16 C 7.015625 16.132812 7.066406 16.261719 7.160156 16.355469 L 10.5 19.691406 Z M 12.5 25.5 L 11.5 25.5 L 11.5 20.691406 L 12.5 21.691406 Z M 18.5 25.5 L 13.5 25.5 L 13.5 22.691406 L 15.644531 24.839844 C 15.839844 25.035156 16.160156 25.035156 16.355469 24.839844 L 18.5 22.691406 Z M 20.5 25.5 L 19.5 25.5 L 19.5 21.691406 L 20.5 20.691406 Z M 16 23.777344 L 8.222656 16 L 16 8.222656 L 23.777344 16 Z M 28 25.5 L 21.5 25.5 L 21.5 19.691406 L 24.839844 16.355469 C 24.933594 16.261719 24.984375 16.132812 24.984375 16 C 24.984375 15.867188 24.933594 15.738281 24.839844 15.644531 L 21.5 12.308594 L 21.5 6.5 L 28 6.5 Z M 29.5 25.5 L 29 25.5 L 29 6.5 L 29.5 6.5 Z M 29.5 25.5 "/>
</g>
</svg>
